X:1
T:Bach, CM
T:Bach, CM
T:Sabbath School Melodist, 1850
T:Public Domain Courtesy of the Cyber Hymnal™
C:Sabbath School Melodist, 1850
Z:Public Domain
Z:Courtesy of the Cyber Hymnal™
%%score 1 ( 2 3 )
L:1/8
Q:1/4=98
M:3/4
K:F
V:1 treble 
V:2 bass 
V:3 bass 
V:1
 [FA]2 | [FA][FB] [FA]2 [Gc]2 | [Ac][FA] [EG]2 [EG]2 | [FA][Fd] [Ec]2 [D=B]2 | [Ec]4 [FA]2 | %5
 [FA][FB] [FA]2 [Gc]2 | [Ac][FA] [EG]2 [EG]2 | [FA][GB] [FA]2 [EG]2 | [FA]4 |] %9
V:2
 [F,C]2 | [F,C][F,D] [F,C]2 [C,E]2 | [F,F][F,C] [C,C]2 [C,C]2 | [F,A,][D,A,] G,2 [G,,G,]2 | %4
 [C,G,]4 [F,C]2 | [F,C][F,D] [F,C]2 [C,E]2 | [F,F][F,C] [C,C]2 [C,C]2 | [F,C][B,,D] [C,C]2 [C,C]2 | %8
 [F,C]4 |] %9
V:3
 x2 | x6 | x6 | x2 G,2 x2 | x6 | x6 | x6 | x6 | x4 |] %9

